core/assets/icons/packman.svg

<svg width="24" height="24" viewBox="0 0 24 24" xmlns="http://www.w3.org/2000/svg"><g id="packman"><path id="Vector" d="M12 2.00001C13.4822 1.9985 14.9462 2.32718 16.2856 2.96217C17.6249 3.59716 18.806 4.52251 19.743 5.67101L13.414 12L19.743 18.329C18.806 19.4775 17.6249 20.4029 16.2856 21.0378C14.9462 21.6728 13.4822 22.0015 12 22C6.477 22 2 17.523 2 12C2 6.47701 6.477 2.00001 12 2.00001ZM12 4.00001C10.7379 4.00023 9.49381 4.29905 8.36931 4.87205C7.24481 5.44505 6.27183 6.27596 5.52988 7.29691C4.78792 8.31786 4.29804 9.49986 4.10026 10.7463C3.90248 11.9928 4.00242 13.2684 4.39191 14.4689C4.7814 15.6693 5.44938 16.7606 6.34128 17.6536C7.23319 18.5465 8.3237 19.2158 9.52372 19.6066C10.7237 19.9975 11.9992 20.0989 13.2459 19.9026C14.4926 19.7063 15.6752 19.2178 16.697 18.477L16.905 18.32L10.585 12L16.905 5.67901L16.697 5.52301C15.4158 4.59162 13.8859 4.06345 12.303 4.00601L12 4.00001ZM12 5.00001C12.3978 5.00001 12.7794 5.15804 13.0607 5.43934C13.342 5.72065 13.5 6.10218 13.5 6.50001C13.5 6.89783 13.342 7.27936 13.0607 7.56067C12.7794 7.84197 12.3978 8.00001 12 8.00001C11.6022 8.00001 11.2206 7.84197 10.9393 7.56067C10.658 7.27936 10.5 6.89783 10.5 6.50001C10.5 6.10218 10.658 5.72065 10.9393 5.43934C11.2206 5.15804 11.6022 5.00001 12 5.00001Z"/></g></svg>

<svg xmlns="http://www.w3.org/2000/svg" width="24" height="24" fill="none"><path fill="#191C22" d="M12 2a9.98 9.98 0 0 1 7.743 3.671L13.414 12l6.329 6.329A9.979 9.979 0 0 1 12 22C6.477 22 2 17.523 2 12S6.477 2 12 2Zm0 2a8 8 0 1 0 4.697 14.477l.208-.157-6.32-6.32 6.32-6.321-.208-.156a7.964 7.964 0 0 0-4.394-1.517L12 4Zm0 1a1.5 1.5 0 1 1 0 3 1.5 1.5 0 0 1 0-3Z"/></svg>
